!!!!SEGMENT: pl-kk--kk-i-1--007-001_anonim--missa-mater-matris-kyrie.krn
!!!cenid: 15xx:683
!!!COM: Anonim
!!!COM-rismID: pe30004985
!!!CDT:
!!!CNT:
!!!OPR: Missa Mater matris
!!!OTL: Kyrie
!!!OMV: 001
!!!PDT:
!!!AGN:
!!!SMS-siglum: PL-Kk
!!!SMS-shelfmark: Kk.I.1
!!!SMS-shelfwork: 007-001 M
!!!SMS-variant:
!!!SMS-altvar:
!!!NIFC-rismSourceID: 300257961
!!!NIFC-islandoraID: pl-kk:1
!!!URL-pdf-islandora: https://repozytorium.nifc.pl/islandora/object/pl-kk%3A1/datastream/PDF/view
!!!URL-scan: https://polish.musicsources.pl/pl/lokalizacje/galeria/rekopisy/5736 @EN{Scan on Polish Music Sources Website} @PL{Skany w portalu Dziedzictwo Muzyki Polskiej w otwartym dostępie}
!!!ONB-nifc: UWAGA: Cantus (s. 52v-59r, skan 0055-0061), Altus (s. 52v-59v, skan 0245-0252), Tenor (s. 51r-58r, skan 0439-0446), Bassus (s. 51r-58r, skan 0612-0619). Części Mszy: 1. Kyrie, 2. Et in terra, 3. Patrem, 4. Sanctus, 5. Agnus Dei
!!!AIN: 1 alto 1 bass 1 soprn 1 tenor
!!!key:
**kern	**text	**kern	**text	**kern	**text	**kern	**text
*part4	*part4	*part3	*part3	*part2	*part2	*part1	*part1
*staff4	*staff4	*staff3	*staff3	*staff2	*staff2	*staff1	*staff1
*I"BASSVS	*	*I"TENOR	*	*I"ALTVS	*	*I"CANTVS	*
*I'B	*	*I'T	*	*I'A	*	*I'C	*
*Ibass	*	*Itenor	*	*Ialto	*	*Isoprn	*
*ICvox	*	*ICvox	*	*ICvox	*	*ICvox	*
*IG	*	*	*	*	*	*	*
*clefF4	*	*clefC4	*	*clefC4	*	*clefC3	*
*k[b-]	*	*k[b-]	*	*k[b-]	*	*k[b-]	*
*d:	*	*d:	*	*d:	*	*d:	*
*M2/1	*	*M2/1	*	*M2/1	*	*M2/1	*
=1-	=1-	=1-	=1-	=1-	=1-	=1-	=1-
*xywh-#612:5753,509,4392,974	*	*xywh-#439:5898,2133,4601,879	*	*xywh-#245:1111,362,4449,997	*	*xywh-#55:773,1439,4759,797	*
!	!	!LO:TX:a:t=Mater pa&colon;\ntris	!	!LO:TX:b:t=Miſsa Mater m(at)ris	!	!LO:TX:t=P:problem=ucięty brzeg strony i adnotacja \n[Mi]ssa m(ate)r\nmatris	!
0r	.	0G	ky-	1r	.	0r	.
.	.	.	.	1G	ky-	.	.
=2-	=2-	=2-	=2-	=2-	=2-	=2-	=2-
!	!	!LO:TX:t=P:problem=kreska pseudotaktowa	!	!LO:TX:t=P:problem=kreska pseudotaktowa	!	!	!
0r	.	1G	-ri-	1B-	-ri-	0r	.
.	.	1F	-e	1c	-e	.	.
=3-	=3-	=3-	=3-	=3-	=3-	=3-	=3-
!	!	!	!	!	!	!LO:TX:t=P:problem=kreska pseudotaktowa	!
*	*	*	*	*2\right	*	*	*
0r	.	1.B-	e-	2d\	e-	0G	ky-
!	!	!	!	!LO:TX:t=P:problem=kreska pseudotaktowa	!	!	!
.	.	.	.	2e\	-le-	.	.
.	.	.	.	2d\	-y-	.	.
!	!	!LO:TX:t=P:problem=kreska pseudotaktowa	!	!	!	!	!
.	.	2G/	-le-	1B-\	-ſon	.	.
=4-	=4-	=4-	=4-	=4-	=4-	=4-	=4-
!	!	!	!	!	!	!LO:TX:t=P:problem=kreska pseudotaktowa	!
0r	.	1B-	-y-	.	.	1G	-ri-
!	!	!	!	!LO:TX:t=P:problem=kreska pseudotaktowa	!	!	!
.	.	.	.	2G/	.	.	.
.	.	1c	-ſon	1A	.	1F	-e
=5-	=5-	=5-	=5-	=5-	=5-	=5-	=5-
!LO:TX:t=P:problem=kreska pseudotaktowa	!	!LO:TX:t=P:problem=kreska pseudotaktowa	!	!	!	!	!
0GG	ky-	1d	.	2G/	.	1.B-	e-
.	.	.	.	2.d\	.	.	.
.	.	2G/	.	.	.	.	.
.	.	.	.	4c/	.	.	.
!	!	!	!	!	!	!LO:TX:t=P:problem=kreska pseudotaktowa	!
.	.	1d\	.	4B-/	.	2G/	-le-
!	!	!	!	!LO:TX:t=P:problem=kreska pseudotaktowa	!	!	!
.	.	.	.	4A/	.	.	.
=6-	=6-	=6-	=6-	=6-	=6-	=6-	=6-
!LO:TX:t=P:problem=kreska pseudotaktowa	!	!	!	!	!	!	!
1GG	-ri-	.	.	1G	.	1B-	-y-
.	.	4c\	.	.	.	.	.
!	!	!LO:TX:t=P:problem=ucięty brzeg strony i adnotacja \nMiſsa m\nmat	!	!	!	!	!
!	!	!LO:TX:t=P:problem=kreska pseudotaktowa	!	!	!	!	!
.	.	4B-\	.	.	.	.	.
1FF	-e	1A	.	4A/	.	1c	-ſon
.	.	.	.	4G/	.	.	.
.	.	.	.	4F/	.	.	.
*	*	*	*	*custos:D	*	*	*
.	.	.	.	4E/	.	.	.
!	!	!	!	!LO:LB:g=original	!	!	!
=7-	=7-	=7-	=7-	=7-	=7-	=7-	=7-
*	*	*	*	*xywh-#245:1094,1274,4466,774	*	*	*
!	!	!	!	!LO:TX:t=P:problem=kreska pseudotaktowa	!	!LO:TX:t=P:problem=kreska pseudotaktowa	!
1.BB-	e-	2G/	.	1D	.	1d	.
.	.	2.d\	.	.	.	.	.
*	*	*	*	*	*	*	*ij
.	.	.	.	2r	.	2G/	e-
*	*	*custos:B-	*	*	*	*	*
.	.	4c\	.	.	.	.	.
*	*	*xywh-#439:5898,2852,4474,850	*	*	*	*	*
!LO:TX:t=P:problem=kreska pseudotaktowa	!	!	!	!	!	!	!
2GG/	.	1B-\	.	2G/	.	1d\	-le-
=8-	=8-	=8-	=8-	=8-	=8-	=8-	=8-
2BB-/	-le-	.	.	2F/	.	.	.
!	!	!	!	!LO:TX:t=P:problem=kreska pseudotaktowa	!	!	!
2C/	.	4A/	.	2E/	.	4c/	.
!	!	!LO:TX:t=P:problem=kreska pseudotaktowa	!	!	!	!	!
.	.	4G/	.	.	.	4B-/	.
!	!	!	!	!	!	!LO:TX:t=P:problem=kreska pseudotaktowa	!
*2\right	*	*	*	*	*	*	*
2D/	-y-	2F/	.	2F/	.	1A	-y-
!LO:TX:t=P:problem=kreska pseudotaktowa	!	!	!	!LO:TX:t=P:problem=kreska pseudotaktowa	!	!	!
2F\	.	2c\	.	2A/	.	.	.
=9-	=9-	=9-	=9-	=9-	=9-	=9-	=9-
*	*	*	*	*	*	*custos:d	*
1G	-ſon	2.B-\	.	2B-/	.	2G/	-ſon
*	*	*	*	*	*	*xywh-#55:1148,2108,4402,949	*
!	!	!	!	!	!	!LO:LB:g=original	!
!	!	!	!	!	!	!LO:TX:t=P:problem=kreska pseudotaktowa	!
.	.	.	.	1.G	.	2.d/	e-
!	!	!LO:TX:t=P:problem=kreska pseudotaktowa	!	!	!	!	!
.	.	4c\	.	.	.	.	.
2.GG/	.	4d\	.	.	.	.	.
.	.	4e\	.	.	.	4c/	.
.	.	1d\	.	.	.	1B-/	-le-
!LO:TX:t=P:problem=kreska pseudotaktowa	!	!	!	!	!	!	!
4AA/	.	.	.	.	.	.	.
=10-	=10-	=10-	=10-	=10-	=10-	=10-	=10-
2BB-/	.	.	.	2F/	.	.	.
*custos:D	*	*	*	*	*	*	*
!	!	!	!	!LO:TX:t=P:problem=kreska pseudotaktowa	!	!	!
2C/	.	4c\	.	2E/	.	4A/	-y-
!	!	!LO:TX:t=P:problem=kreska pseudotaktowa	!	!	!	!LO:TX:t=P:problem=kreska pseudotaktowa	!
.	.	4B-\	.	.	.	4G/	.
*xywh-#612:5595,1351,4638,785	*	*	*	*	*	*	*
2D/	.	1A	.	2F/	.	2F/	-ſon
!	!	!	!	!LO:TX:t=P:problem=kreska pseudotaktowa	!	!LO:TX:t=P:problem=kreska pseudotaktowa	!
2F\	.	.	.	2A/	.	2c/	e-
=11-	=11-	=11-	=11-	=11-	=11-	=11-	=11-
!LO:TX:t=P:problem=kreska pseudotaktowa	!	!	!	!	!	!	!
1G	.	2.G/	.	2B-/	.	2.B-/	-le-
.	.	.	.	1.G	.	.	.
!	!	!LO:TX:t=P:problem=kreska pseudotaktowa	!	!	!	!	!
.	.	4A/	.	.	.	4c/	.
2.GG/	.	4B-/	.	.	.	4d/	-y-
.	.	4c/	.	.	.	4e/	.
.	.	1B-\	.	.	.	1d\	-ſon
4AA/	.	.	.	.	.	.	.
=12-	=12-	=12-	=12-	=12-	=12-	=12-	=12-
2BB-/	.	.	.	2F/	.	.	.
!	!	!	!	!LO:TX:t=P:problem=kreska pseudotaktowa	!	!	!
2C/	.	4A/	.	2E/	.	4c/	e-
!	!	!LO:TX:t=P:problem=kreska pseudotaktowa	!	!	!	!LO:TX:t=P:problem=kreska pseudotaktowa	!
.	.	4G/	.	.	.	4B-/	.
!LO:TX:t=P:problem=kreska pseudotaktowa	!	!	!	!	!	!	!
1D	.	4F/	.	2D/	.	1A	-ley-
.	.	4G/	.	.	.	.	.
.	.	4A/	.	2.d\	.	.	.
*	*	*custos:G	*	*	*	*	*
!	!	!LO:TX:t=P:problem=kreska pseudotaktowa	!	!	!	!	!
.	.	4F/	.	.	.	.	.
!	!	!LO:PB:g=original	!	!	!	!	!
=13-	=13-	=13-	=13-	=13-	=13-	=13-	=13-
*	*	*xywh-#440:1215,562,4376,847	*	*	*	*	*
!	!	!	!	!	!	!LO:TX:t=P:problem=kreska pseudotaktowa	!
1r	.	0G	.	.	.	1G	-ſon
.	.	.	.	4c/	.	.	.
.	.	.	.	4B-/	.	.	.
!	!	!	!	!LO:TX:t=P:problem=kreska pseudotaktowa	!	!	!
.	.	.	.	4A/	.	.	.
*	*	*	*	*custos:B-	*	*	*
1GG	.	.	.	1B-	.	1r	.
!	!	!	!	!LO:LB:g=original	!	!	!
=14-	=14-	=14-	=14-	=14-	=14-	=14-	=14-
*	*	*	*	*xywh-#245:1071,2014,4483,700	*	*	*
2.BB-/	.	1r	.	2r	.	0d	ky-
.	.	.	.	1B-	.	.	.
!LO:TX:t=P:problem=kreska pseudotaktowa	!	!	!	!	!	!	!
4C/	.	.	.	.	.	.	.
2.D/	.	1F	.	.	.	.	.
!	!	!	!	!LO:TX:t=P:problem=kreska pseudotaktowa	!	!	!
.	.	.	.	2B-/	.	.	.
4E/	.	.	.	.	.	.	.
=15-	=15-	=15-	=15-	=15-	=15-	=15-	=15-
!LO:TX:t=P:problem=kreska pseudotaktowa	!	!	!	!	!	!	!
1F	.	4A/	.	1A	.	1c	-ri-
.	.	4B-/	.	.	.	.	.
.	.	4c/	.	.	.	.	.
.	.	4A/	.	.	.	.	.
!	!	!	!	!	!	!LO:TX:t=P:problem=kreska pseudotaktowa	!
1BB-	.	1B-	.	1d	.	1f	-e
=16-	=16-	=16-	=16-	=16-	=16-	=16-	=16-
2C/	.	1G	.	2c\	.	2e\	e-
!LO:TX:t=P:problem=kreska pseudotaktowa	!	!	!	!	!	!	!
2GG/	.	.	.	1B-	.	1d	-le-
2BB-/	.	2F/	.	.	.	.	.
2C/	.	2E/	.	4A/	.	4c/	-y-
*	*	*	*	*	*	*custos:A	*
!	!	!	!	!LO:TX:t=P:problem=kreska pseudotaktowa	!	!LO:TX:t=P:problem=kreska pseudotaktowa	!
.	.	.	.	4G/	.	4B-/	.
!	!	!	!	!	!	!LO:LB:g=original	!
=17-	=17-	=17-	=17-	=17-	=17-	=17-	=17-
*	*	*	*	*	*	*xywh-#55:1201,2875,4384,908	*
!LO:TX:t=P:problem=kreska pseudotaktowa	!	!	!	!	!	!LO:TX:t=P:problem=kreska pseudotaktowa	!
1D	.	1F	.	1F	.	1A	-ſon
1r	.	1r	.	1r	.	1r	.
=18-	=18-	=18-	=18-	=18-	=18-	=18-	=18-
*custos:BB-	*	*	*	*	*	*	*
!	!	!	!	!LO:TX:t=P:problem=kreska pseudotaktowa	!	!	!
0.BB-	.	0F	.	0B-	.	0d	ky-
=19-	=19-	=19-	=19-	=19-	=19-	=19-	=19-
*xywh-#612:5543,2034,4724,814	*	*	*	*	*	*	*
!	!	!	!	!	!	!LO:TX:t=P:problem=kreska pseudotaktowa	!
.	.	1D	.	1G	.	1B-	-ri-
1BB-	.	1D	.	1G	.	1B-	-e
=20-	=20-	=20-	=20-	=20-	=20-	=20-	=20-
!	!	!	!	!LO:TX:t=P:problem=kreska pseudotaktowa	!	!	!
1AA	.	1E	.	1A	.	1c	e-
!LO:TX:t=P:problem=kreska pseudotaktowa	!	!	!	!	!	!	!
1D	.	1F	.	1B-	.	1d	.
=21-	=21-	=21-	=21-	=21-	=21-	=21-	=21-
1C	.	1.G	.	1.c	.	1.e	-le-
1.C	.	.	.	.	.	.	.
!	!	!	!	!LO:TX:t=P:problem=kreska pseudotaktowa	!	!LO:TX:t=P:problem=kreska pseudotaktowa	!
.	.	2E/	.	2A/	.	2c/	-y-
=22-	=22-	=22-	=22-	=22-	=22-	=22-	=22-
.	.	1.E	.	1A	.	1c	-ſon
2AA/	.	.	.	.	.	.	.
!LO:TX:t=P:problem=kreska pseudotaktowa	!	!	!	!	!	!	!
1AA	.	.	.	2r	.	2r	.
!	!	!	!	!LO:TX:t=P:problem=kreska pseudotaktowa	!	!LO:TX:t=P:problem=kreska pseudotaktowa	!
.	.	2A/	.	2A/	.	2c/	e-
=23-	=23-	=23-	=23-	=23-	=23-	=23-	=23-
2r	.	2G/	.	2B-/	.	2d/	-le-
*	*	*custos:D	*	*	*	*	*
2AA/	.	2A/	.	2c/	.	2c/	-y-
*	*	*	*	*custos:G	*	*	*
*	*	*xywh-#440:1255,1329,4376,910	*	*	*	*	*
2BB-/	.	2D/	.	2d/	.	2B-/	-ſon
*	*	*	*	*xywh-#245:1105,2709,4398,974	*	*	*
!	!	!	!	!LO:LB:g=original	!	!	!
!LO:TX:t=P:problem=kreska pseudotaktowa	!	!	!	!	!	!LO:TX:t=P:problem=kreska pseudotaktowa	!
2C/	.	2G/	.	4G/	.	2e\	e-
!	!	!	!	!LO:TX:t=P:problem=kreska pseudotaktowa	!	!	!
.	.	.	.	4A/	.	.	.
=24-	=24-	=24-	=24-	=24-	=24-	=24-	=24-
2D/	.	2F/	.	4B-/	.	2.d/	-le-
.	.	.	.	4c/	.	.	.
4GG/	.	2G/	.	1d	.	.	.
!LO:TX:t=P:problem=kreska pseudotaktowa	!	!	!	!	!	!	!
4AA/	.	.	.	.	.	4c/	.
4BB-/	.	1D	.	.	.	2B-/	.
4C/	.	.	.	.	.	.	.
4D/	.	.	.	4c/	.	4A/	.
!LO:TX:t=P:problem=kreska pseudotaktowa	!	!	!	!LO:TX:t=P:problem=kreska pseudotaktowa	!	!LO:TX:t=P:problem=kreska pseudotaktowa	!
4E/	.	.	.	4B-/	.	4G/	.
=25-	=25-	=25-	=25-	=25-	=25-	=25-	=25-
2F\	.	0r	.	2A/	.	2F/	.
*	*	*	*	*	*	*custos:c	*
1G	.	.	.	2G/	.	2B-/	.
*	*	*	*	*	*	*xywh-#55:5772,636,4408,873	*
!	!	!	!	!	!	!LO:PB:g=original	!
.	.	.	.	1A	.	1c	-y-
2F\	.	.	.	.	.	.	.
=26-	=26-	=26-	=26-	=26-	=26-	=26-	=26-
!LO:TX:t=P:problem=kreska pseudotaktowa	!	!	!	!LO:TX:t=P:problem=kreska pseudotaktowa	!	!LO:TX:t=P:problem=kreska pseudotaktowa	!
0G	.	0r	.	1G	.	1B-	-ſon
.	.	.	.	1r	.	1r	.
=27-	=27-	=27-	=27-	=27-	=27-	=27-	=27-
1.GG	.	1.D	.	0G	.	1B-	ky-
!	!	!	!	!	!	!LO:TX:t=P:problem=kreska pseudotaktowa	!
.	.	.	.	.	.	1B-	-ri-
*custos:BB-	*	*	*	*	*	*	*
2AA/	.	2C/	.	.	.	.	.
=28-	=28-	=28-	=28-	=28-	=28-	=28-	=28-
*xywh-#612:5509,2533,4770,1255	*	*	*	*	*	*	*
2BB-/	.	2D/	.	1G	.	1B-	-e-
2C/	.	2E/	.	.	.	.	.
!LO:TX:t=P:problem=kreska pseudotaktowa	!	!	!	!LO:TX:t=P:problem=kreska pseudotaktowa	!	!	!
1D	.	2F/	.	1F	.	1A	-e-
.	.	2D/	.	.	.	.	.
=29-	=29-	=29-	=29-	=29-	=29-	=29-	=29-
2GG/	.	1G	.	1.B-	.	1.d	-le-
4G\	.	.	.	.	.	.	.
!LO:TX:t=P:problem=kreska pseudotaktowa	!	!	!	!	!	!	!
4F\	.	.	.	.	.	.	.
4G\	.	1r	.	.	.	.	.
4A\	.	.	.	.	.	.	.
!	!	!	!	!LO:TX:t=P:problem=kreska pseudotaktowa	!	!LO:TX:t=P:problem=kreska pseudotaktowa	!
2.B-\	.	.	.	2G/	.	2B-/	.
=30-	=30-	=30-	=30-	=30-	=30-	=30-	=30-
.	.	1r	.	1B-	.	1d	.
4A\	.	.	.	.	.	.	.
4G\	.	.	.	.	.	.	.
!LO:TX:t=P:problem=kreska pseudotaktowa	!	!	!	!	!	!	!
4F\	.	.	.	.	.	.	.
1E	.	1G	.	1c	.	1e	-y-
=31-	=31-	=31-	=31-	=31-	=31-	=31-	=31-
*	*	*	*	*custos:d	*	*	*
!LO:TX:t=P:problem=kreska pseudotaktowa	!	!	!	!	!	!	!
0.D	.	1.A	.	000d	.	000f	-ſon
*	*	*	*	*	*	*	*Xij
!	!	!	!	!LO:LB:g=original	!	!	!
.	.	2B-/	.	.	.	.	.
=32-	=32-	=32-	=32-	=32-	=32-	=32-	=32-
.	.	2A/	.	.	.	.	.
.	.	1B-	.	.	.	.	.
2.BB-/	.	.	.	.	.	.	.
.	.	4A/	.	.	.	.	.
4C/	.	4G/	.	.	.	.	.
=33-	=33-	=33-	=33-	=33-	=33-	=33-	=33-
!LO:TX:t=P:problem=kreska pseudotaktowa	!	!	!	!	!	!	!
1D	.	1F	.	.	.	.	.
2.BB-/	.	1B-	.	.	.	.	.
4C/	.	.	.	.	.	.	.
=34-	=34-	=34-	=34-	=34-	=34-	=34-	=34-
*custos:D	*	*custos:A	*	*	*	*	*
0D;	.	0A	.	.	.	.	.
*	*	*	*	*clefC3	*	*	*
=35||-	=35||-	=35||-	=35||-	=35||-	=35||-	=35||-	=35||-
*xywh-#613:1129,327,4466,985	*	*xywh-#440:1238,2068,4410,876	*	*xywh-#245:5715,391,4421,985	*	*	*
*M2/1	*	*M2/1	*	*M2/1	*	*M2/1	*
2.D/	Chri-	1A	Chri-	0.d	Chri-	0r	.
!LO:TX:t=P:problem=kreska pseudotaktowa	!	!	!	!	!	!	!
4E\	.	.	.	.	.	.	.
2F\	-ſte	2A/	-ſte	.	.	.	.
2G\	.	1B-\	.	.	.	.	.
=36-	=36-	=36-	=36-	=36-	=36-	=36-	=36-
!	!	!	!	!	!	!LO:TX:t=P:problem=kreska pseudotaktowa	!
4GG/	e-	.	.	.	.	1r	.
4FF/	.	.	.	.	.	.	.
4GG/	-le-	4A/	e-	.	.	.	.
!LO:TX:t=P:problem=kreska pseudotaktowa	!	!	!	!	!	!	!
4AA/	-y-	4G/	.	.	.	.	.
4BB-/	-ſon	2F/	-ley-	1d	-ſte	2r	.
4AA/	.	.	.	.	.	.	.
4BB-/	.	2B-/	-ſon	.	.	2d/	Chri-
!LO:TX:t=P:problem=kreska pseudotaktowa	!	!	!	!	!	!	!
4C/	.	.	.	.	.	.	.
=37-	=37-	=37-	=37-	=37-	=37-	=37-	=37-
!	!	!	!	!	!	!LO:TX:t=P:problem=kreska pseudotaktowa	!
4D/	.	2.A/	.	2.d/	e-	1f	-ste
4C/	.	.	.	.	.	.	.
4D/	.	.	.	.	.	.	.
!LO:TX:t=P:problem=kreska pseudotaktowa	!	!	!	!	!	!	!
4E/	.	4G/	.	4c/	-le-	.	.
4F/	.	4F/	.	2d/	-y-	2f\	e-
4G/	.	4E/	.	.	.	.	.
1A\	.	1F/	.	2.c/	-ſon	2.f\	.
=38-	=38-	=38-	=38-	=38-	=38-	=38-	=38-
.	.	.	.	.	.	.	.
*	*	*	*	*	*	*custos:d	*
.	.	.	.	4B-/	.	4e\	.
*	*	*	*	*	*	*xywh-#55:5796,1258,4478,1019	*
!	!	!	!	!	!	!LO:LB:g=original	!
1G	.	2G/	.	4A/	.	4d/	.
.	.	.	.	4G/	.	4c/	.
!	!	!	!	!	!	!LO:TX:t=P:problem=kreska pseudotaktowa	!
.	.	1D	.	1A	.	1d	-ley-
!LO:TX:t=P:problem=kreska pseudotaktowa	!	!	!	!	!	!	!
2F\	.	.	.	.	.	.	.
=39-	=39-	=39-	=39-	=39-	=39-	=39-	=39-
!	!	!	!	!	!	!LO:TX:t=P:problem=kreska pseudotaktowa	!
2G\	.	1r	.	1G	.	1d	-ſon
!LO:TX:t=P:problem=kreska pseudotaktowa	!	!	!	!	!	!	!
2G\	.	.	.	.	.	.	.
*custos:B-	*	*	*	*	*	*	*
2A\	.	0d	.	2D/	.	2r	.
*xywh-#613:1072,1166,4512,890	*	*	*	*	*	*	*
!LO:TX:t=P:problem=kreska pseudotaktowa	!	!	!	!	!	!	!
*	*	*	*	*	*	*	*ij
2B-\	.	.	.	2G/	.	2g\	Chri-
=40-	=40-	=40-	=40-	=40-	=40-	=40-	=40-
2A\	.	.	.	2F/	.	2a\	-ste
!	!	!	!	!	!	!LO:TX:t=P:problem=kreska pseudotaktowa	!
2.B-\	.	.	.	2.G/	.	2g\	e-
.	.	1d	.	.	.	2.g\	-le-
4A\	.	.	.	4F/	.	.	.
!LO:TX:t=P:problem=kreska pseudotaktowa	!	!	!	!	!	!	!
2B-\	.	.	.	4G/	.	.	.
!	!	!	!	!	!	!LO:TX:t=P:problem=kreska pseudotaktowa	!
.	.	.	.	4A/	.	4f\	.
=41-	=41-	=41-	=41-	=41-	=41-	=41-	=41-
2G\	.	2.d\	.	4B-/	.	4d\	-y-
.	.	.	.	4c/	.	4e\	.
4F\	.	.	.	4d/	.	4f\	.
!LO:TX:t=P:problem=kreska pseudotaktowa	!	!	!	!	!	!LO:TX:t=P:problem=kreska pseudotaktowa	!
4E\	.	4c\	.	4e/	.	4g\	.
2D/	.	2d\	.	4f/	.	2a\	-ſon
*	*	*	*	*custos:a	*	*	*
.	.	.	.	4g/	.	.	.
*	*	*	*	*xywh-#245:5715,1251,4501,780	*	*	*
!	!	!	!	!LO:LB:g=original	!	!	!
1F\	.	2.c\	.	2.a\	.	2.f\	e-
=42-	=42-	=42-	=42-	=42-	=42-	=42-	=42-
.	.	.	.	.	.	.	.
.	.	4B-/	.	4g\	.	4e/	.
!LO:TX:t=P:problem=kreska pseudotaktowa	!	!	!	!	!	!	!
2G\	.	4A/	.	1g	.	4d/	-le-
*	*	*custos:A	*	*	*	*	*
!	!	!	!	!	!	!LO:TX:t=P:problem=kreska pseudotaktowa	!
.	.	4G/	.	.	.	4c/	-y-
*	*	*xywh-#440:1330,2916,4330,675	*	*	*	*	*
!	!	!	!	!	!	!LO:TX:t=P:problem=kreska pseudotaktowa	!
1D	.	1A	.	.	.	1d	-ſon
.	.	.	.	2f\	.	.	.
=43-	=43-	=43-	=43-	=43-	=43-	=43-	=43-
1G	.	1r	.	1g	.	1r	.
!LO:TX:t=P:problem=kreska pseudotaktowa	!	!	!	!	!	!	!
1E	.	1G	.	1c	.	1e	Chri-
=44-	=44-	=44-	=44-	=44-	=44-	=44-	=44-
*	*	*lig	*	*lig	*	*	*
!	!	!	!	!	!	!LO:TX:t=P:problem=kreska pseudotaktowa	!
1C	.	1A	.	1d	.	1f	-ste
*	*	*	*	*	*	*custos:a	*
!LO:TX:t=P:problem=kreska pseudotaktowa	!	!	!	!	!	!	!
1G	.	1B-	.	1e	.	1g	e-
!	!	!	!	!	!	!LO:LB:g=original	!
*	*	*Xlig	*	*Xlig	*	*	*
=45-	=45-	=45-	=45-	=45-	=45-	=45-	=45-
*	*	*	*	*	*	*xywh-#55:5826,1979,4437,1014	*
*	*	*lig	*	*	*	*lig	*
1.F	.	1c	.	1f	.	1a	-le-
.	.	1A	.	1d	.	1f	.
2D/	.	.	.	.	.	.	.
!LO:TX:t=P:problem=kreska pseudotaktowa	!	!	!	!	!	!	!
*	*	*Xlig	*	*	*	*Xlig	*
=46-	=46-	=46-	=46-	=46-	=46-	=46-	=46-
2G\	.	0B-	.	0e-X	.	0g	-y-
2E/	.	.	.	.	.	.	.
1G	.	.	.	.	.	.	.
=47-	=47-	=47-	=47-	=47-	=47-	=47-	=47-
!	!	!	!	!	!	!LO:TX:t=P:problem=kreska pseudotaktowa	!
0D	.	1A	.	0d	.	0f	-ſon
.	.	2r	.	.	.	.	.
.	.	1A\	.	.	.	.	.
=48-	=48-	=48-	=48-	=48-	=48-	=48-	=48-
*custos:G	*	*	*	*	*	*	*
!LO:TX:t=P:problem=kreska pseudotaktowa	!	!	!	!	!	!	!
1D	.	.	.	2r	.	2r	.
.	.	2A/	.	1d	.	1f	Chri-
*xywh-#613:1038,1910,4466,839	*	*	*	*	*	*	*
2r	.	1B-	.	.	.	.	.
!LO:TX:t=P:problem=kreska pseudotaktowa	!	!	!	!	!	!	!
2G\	.	.	.	2B-/	.	1g\	-ste
=49-	=49-	=49-	=49-	=49-	=49-	=49-	=49-
2E/	.	2G/	.	2c/	.	.	.
!	!	!	!	!	!	!LO:TX:t=P:problem=kreska pseudotaktowa	!
2F\	.	2A/	.	2.d/	.	2f\	e-
2.G\	.	1B-	.	.	.	1d	-ley-
.	.	.	.	4c/	.	.	.
.	.	.	.	4B-/	.	.	.
!LO:TX:t=P:problem=kreska pseudotaktowa	!	!	!	!	!	!	!
4F/	.	.	.	4A/	.	.	.
=50-	=50-	=50-	=50-	=50-	=50-	=50-	=50-
4E/	.	1c	.	2G/	.	1e	-ſon
4D/	.	.	.	.	.	.	.
!LO:TX:t=P:problem=kreska pseudotaktowa	!	!	!	!	!	!	!
2C/	.	.	.	2A/	.	.	.
2D/	.	1r	.	2B-/	.	2d/	e-
*	*	*	*	*custos:c	*	*	*
!	!	!	!	!	!	!LO:TX:t=P:problem=kreska pseudotaktowa	!
2E/	.	.	.	1G/	.	2.g\	-le-
!	!	!	!	!LO:LB:g=original	!	!	!
=51-	=51-	=51-	=51-	=51-	=51-	=51-	=51-
*	*	*	*	*xywh-#245:5749,1975,4540,928	*	*	*
1C	.	2r	.	.	.	.	.
.	.	.	.	.	.	4f/	.
.	.	2G/	.	2.c/	.	4e/	-y-
.	.	.	.	.	.	4d/	.
!	!	!	!	!	!	!LO:TX:t=P:problem=kreska pseudotaktowa	!
2.F\	.	1.A	.	.	.	1c	-ſon
.	.	.	.	4B-/	.	.	.
.	.	.	.	4A/	.	.	.
!LO:TX:t=P:problem=kreska pseudotaktowa	!	!	!	!	!	!	!
4E/	.	.	.	4G/	.	.	.
=52-	=52-	=52-	=52-	=52-	=52-	=52-	=52-
4D/	.	.	.	2F/	.	1d	Chri-
4C/	.	.	.	.	.	.	.
!LO:TX:t=P:problem=kreska pseudotaktowa	!	!	!	!	!	!	!
2BB-/	.	2D/	.	2G/	.	.	.
2C/	.	2E/	.	2A/	.	2c/	-ste
!	!	!	!	!	!	!LO:TX:t=P:problem=kreska pseudotaktowa	!
2D/	.	2F/	.	1F/	.	2A/	e-
=53-	=53-	=53-	=53-	=53-	=53-	=53-	=53-
*	*	*custos:E	*	*	*	*	*
!LO:TX:t=P:problem=kreska pseudotaktowa	!	!	!	!	!	!	!
1BB-	.	1D	.	.	.	1d	-ley-
.	.	.	.	2G/	.	.	.
*	*	*	*	*	*	*custos:B-	*
*	*	*xywh-#440:5991,539,4410,927	*	*	*	*	*
2C/	.	2E/	.	2A/	.	2c,/	-ſon
*	*	*	*	*	*	*xywh-#55:5802,2793,4466,973	*
!	!	!	!	!	!	!LO:LB:g=original	!
!	!	!	!	!	!	!LO:TX:t=P:problem=kreska pseudotaktowa	!
2D/	.	2F/	.	2.B-/	.	2.B-/	e-
=54-	=54-	=54-	=54-	=54-	=54-	=54-	=54-
!LO:TX:t=P:problem=kreska pseudotaktowa	!	!	!	!	!	!	!
1GG	.	1G	.	.	.	.	.
.	.	.	.	4A/	.	4c/	.
.	.	.	.	1G	.	4d/	.
!	!	!	!	!	!	!LO:TX:t=P:problem=kreska pseudotaktowa	!
.	.	.	.	.	.	4B-/	.
1AA	.	1r	.	.	.	1.c	-le-
.	.	.	.	2F/	.	.	.
=55-	=55-	=55-	=55-	=55-	=55-	=55-	=55-
1GG	.	0r	.	0G	.	.	.
.	.	.	.	.	.	4B-/	.
!	!	!	!	!	!	!LO:TX:t=P:problem=kreska pseudotaktowa	!
.	.	.	.	.	.	4A/	.
*custos:C	*	*	*	*	*	*	*
!LO:TX:t=P:problem=kreska pseudotaktowa	!	!	!	!	!	!	!
1G	.	.	.	.	.	1B-	-y-
=56-	=56-	=56-	=56-	=56-	=56-	=56-	=56-
*xywh-#613:976,2676,4483,963	*	*	*	*	*	*	*
1C	.	1r	.	1r	.	2c/	-ſon
.	.	.	.	.	.	1e	Chri-
1E	.	1G	.	1c	.	.	.
!	!	!	!	!	!	!LO:TX:t=P:problem=kreska pseudotaktowa	!
.	.	.	.	.	.	2e\	-ste
=57-	=57-	=57-	=57-	=57-	=57-	=57-	=57-
!LO:TX:t=P:problem=kreska pseudotaktowa	!	!	!	!	!	!	!
*	*	*lig	*	*lig	*	*lig	*
1D	.	1A	.	1d	.	1f	e-
1G	.	1B-	.	1eny	.	1g	.
*	*	*Xlig	*	*Xlig	*	*Xlig	*
=58-	=58-	=58-	=58-	=58-	=58-	=58-	=58-
*	*	*lig	*	*lig	*	*lig	*
1.F	.	1c	.	1f	.	1a	-le-
.	.	1A	.	1d	.	1f	.
2D/	.	.	.	.	.	.	.
!LO:TX:t=P:problem=kreska pseudotaktowa	!	!	!	!	!	!	!
*	*	*Xlig	*	*Xlig	*	*Xlig	*
=59-	=59-	=59-	=59-	=59-	=59-	=59-	=59-
2G\	.	0B-	.	0e-X	.	0g	-y-
2E/	.	.	.	.	.	.	.
1G	.	.	.	.	.	.	.
=60-	=60-	=60-	=60-	=60-	=60-	=60-	=60-
*	*	*	*	*custos:d	*	*custos:d	*
0D	.	0A	.	0d	.	0f;	-ſon
*	*	*	*	*	*	*	*Xij
!	!	!	!	!LO:LB:g=original	!	!	!
=61||-	=61||-	=61||-	=61||-	=61||-	=61||-	=61||-	=61||-
*	*	*	*	*xywh-#245:5772,2766,4575,843	*	*xywh-#56:1193,537,4382,915	*
*M2/1	*	*M2/1	*	*M2/1	*	*M2/1	*
!	!	!	!	!	!	!LO:TX:a:t=16	!
1.G	ky-	1G	ky-	0d	ky-	0r	.
.	.	2B-/	-ri-	.	.	.	.
!LO:TX:t=P:problem=kreska pseudotaktowa	!	!	!	!	!	!	!
2F\	-ri-	2A/	-e	.	.	.	.
=62-	=62-	=62-	=62-	=62-	=62-	=62-	=62-
2E\	-e	2G/	e-	2c/	.	0r	.
1G	e-	1B-	-le-	2B-/	-ri-	.	.
.	.	.	.	1d	-e	.	.
!LO:TX:t=P:problem=kreska pseudotaktowa	!	!	!	!	!	!	!
2F\	-le-	2A/	-y-	.	.	.	.
=63-	=63-	=63-	=63-	=63-	=63-	=63-	=63-
2E\	-y-	2G/	-ſon	2c/	e-	0r	.
1G	-ſon	1B-	.	2B-/	-le-	.	.
.	.	.	.	1d	-y-	.	.
!LO:TX:t=P:problem=kreska pseudotaktowa	!	!	!	!	!	!	!
2F\	.	2A/	.	.	.	.	.
=64-	=64-	=64-	=64-	=64-	=64-	=64-	=64-
*	*	*custos:B-	*	*	*	*	*
2E\	.	2G/	.	2c/	-ſon	0r	.
*custos:F	*	*	*	*	*	*	*
*	*	*xywh-#440:5929,1352,4444,721	*	*	*	*	*
1G	.	1B-	.	2B-/	.	.	.
.	.	.	.	1d	.	.	.
*xywh-#613:5674,648,4478,670	*	*	*	*	*	*	*
!LO:TX:t=P:problem=kreska pseudotaktowa	!	!	!	!	!	!	!
2F\	.	2A/	.	.	.	.	.
=65-	=65-	=65-	=65-	=65-	=65-	=65-	=65-
2E\	.	2G/	.	2c/	.	0r	.
2.D/	.	2.F/	.	2B-/	.	.	.
.	.	.	.	2.A/	.	.	.
4E\	.	4G/	.	.	.	.	.
4F\	.	2A/	.	.	.	.	.
!LO:TX:t=P:problem=kreska pseudotaktowa	!	!	!	!	!	!	!
4G\	.	.	.	4B-/	.	.	.
=66-	=66-	=66-	=66-	=66-	=66-	=66-	=66-
2A\	.	1F	.	2c/	.	0r	.
4D/	.	.	.	1d	.	.	.
!LO:TX:t=P:problem=kreska pseudotaktowa	!	!	!	!	!	!	!
4E/	.	.	.	.	.	.	.
4F/	.	2D/	.	.	.	.	.
4G/	.	.	.	.	.	.	.
2.A\	.	2F/	.	2c/	.	.	.
=67-	=67-	=67-	=67-	=67-	=67-	=67-	=67-
.	.	2G/	.	2B-/	.	0r	.
4G/	.	.	.	.	.	.	.
1G	.	2E/	.	2G/	.	.	.
.	.	1D	.	1A	.	.	.
!LO:TX:t=P:problem=kreska pseudotaktowa	!	!	!	!	!	!	!
2F\	.	.	.	.	.	.	.
=68-	=68-	=68-	=68-	=68-	=68-	=68-	=68-
!LO:TX:t=P:problem=kreska pseudotaktowa	!	!	!	!	!	!	!
0G	.	2r	.	1G	.	0r	.
.	.	2G/	.	.	.	.	.
.	.	1.B-	.	1.d	.	.	.
=69-	=69-	=69-	=69-	=69-	=69-	=69-	=69-
!	!	!	!	!	!	!LO:TX:t=P:problem=kreska pseudotaktowa	!
2r	.	.	.	.	.	2r	.
!LO:TX:t=P:problem=kreska pseudotaktowa	!	!	!	!	!	!LO:TX:t=P:problem=kreska pseudotaktowa	!
2G\	.	4A/	.	4c/	.	2d\	ky-
*	*	*	*	*custos:c	*	*	*
.	.	4G/	.	4B-/	.	.	.
*	*	*	*	*xywh-#246:1132,481,4382,834	*	*	*
!	!	!	!	!LO:PB:g=original	!	!	!
2F\	.	2A/	.	2c/	.	2f\	-ri-
2G\	.	2G/	.	2B-/	.	2d\	-e
=70-	=70-	=70-	=70-	=70-	=70-	=70-	=70-
2.C/	.	1c	.	1eny	.	2g\	e-
!	!	!	!	!	!	!LO:TX:t=P:problem=kreska pseudotaktowa	!
.	.	.	.	.	.	2.g\	-le-
!LO:TX:t=P:problem=kreska pseudotaktowa	!	!	!	!	!	!	!
4BB-/	.	.	.	.	.	.	.
2GG/	.	2B-/	.	2d/	.	.	.
.	.	.	.	.	.	4f\	.
*custos:BB-	*	*	*	*	*	*	*
1AA/	.	1A\	.	1c\	.	4e\	.
!	!	!	!	!	!	!LO:TX:t=P:problem=kreska pseudotaktowa	!
.	.	.	.	.	.	4d\	.
=71-	=71-	=71-	=71-	=71-	=71-	=71-	=71-
.	.	.	.	.	.	2c/	.
*xywh-#613:5731,1369,4230,816	*	*	*	*	*	*	*
!LO:TX:t=P:problem=kreska pseudotaktowa	!	!	!	!	!	!	!
2BB-/	.	4G/	.	4B-/	.	2d/	-y-
.	.	4F/	.	4A/	.	.	.
2C/	.	2E/	.	2G/	.	2c/	-ſon
*	*	*custos:E	*	*	*	*	*
!	!	!	!	!	!	!LO:TX:t=P:problem=kreska pseudotaktowa	!
2D/	.	2D/	.	2F/	.	2A/	.
=72-	=72-	=72-	=72-	=72-	=72-	=72-	=72-
*	*	*xywh-#440:5958,2091,4433,939	*	*	*	*	*
1GG	.	4E/	.	4G/	.	2.B-/	.
.	.	4D/	.	4F/	.	.	.
.	.	1G	.	1B-	.	.	.
.	.	.	.	.	.	4c/	.
!LO:TX:t=P:problem=kreska pseudotaktowa	!	!	!	!	!	!	!
1D	.	.	.	.	.	1.d	.
.	.	2F/	.	2A/	.	.	.
=73-	=73-	=73-	=73-	=73-	=73-	=73-	=73-
1r	.	1G	.	1B-	.	.	.
.	.	.	.	.	.	4G/	.
!	!	!	!	!	!	!LO:TX:t=P:problem=kreska pseudotaktowa	!
.	.	.	.	.	.	4A/	.
1GG	.	1r	.	1r	.	4B-/	.
.	.	.	.	.	.	4c/	.
*	*	*	*	*	*	*custos:B-	*
!	!	!	!	!	!	!LO:TX:t=P:problem=kreska pseudotaktowa	!
.	.	.	.	.	.	2d/	.
=74-	=74-	=74-	=74-	=74-	=74-	=74-	=74-
*	*	*	*	*	*	*xywh-#56:1199,1314,4290,950	*
!LO:TX:t=P:problem=kreska pseudotaktowa	!	!	!	!	!	!	!
1BB-	.	1D	.	1G	.	1B-	.
*	*	*lig	*	*	*	*	*
1AA	.	1E	.	1A	.	1c	.
=75-	=75-	=75-	=75-	=75-	=75-	=75-	=75-
!	!	!	!	!	!	!LO:TX:t=P:problem=kreska pseudotaktowa	!
1D	.	1F	.	1B-	.	1d	.
*	*	*Xlig	*	*	*	*	*
1.C	.	1.G	.	1.c	.	1.e	.
=76-	=76-	=76-	=76-	=76-	=76-	=76-	=76-
.	.	.	.	.	.	.	.
!LO:TX:t=P:problem=kreska pseudotaktowa	!	!	!	!	!	!	!
2D/	.	2F/	.	2B-/	.	2d/	.
1GG	.	1D	.	1G	.	1B-	.
=77-	=77-	=77-	=77-	=77-	=77-	=77-	=77-
*	*	*	*	*custos:G	*	*	*
!	!	!	!	!	!	!LO:TX:t=P:problem=kreska pseudotaktowa	!
0C	.	0E	.	0A	.	0c	.
!	!	!	!	!LO:LB:g=original	!	!	!
=78-	=78-	=78-	=78-	=78-	=78-	=78-	=78-
*	*	*	*	*xywh-#246:1109,1276,4181,934	*	*	*
*M3/1	*	*M3/1	*	*M3/1	*	*M3/1	*
0GG	.	0D	.	0G	.	0B-	.
!LO:TX:t=P:problem=kreska pseudotaktowa	!	!	!	!	!	!LO:TX:t=P:problem=kreska pseudotaktowa	!
1GG	.	1r	.	1r	.	1r	.
=79-	=79-	=79-	=79-	=79-	=79-	=79-	=79-
0BB-	.	0D	.	0G	.	0B-	.
!LO:TX:t=P:problem=kreska pseudotaktowa	!	!	!	!	!	!LO:TX:t=P:problem=kreska pseudotaktowa	!
1AA	.	1E	.	1A	.	1c	.
=80-	=80-	=80-	=80-	=80-	=80-	=80-	=80-
1D	.	1F	.	1B-	.	1d	.
1.C	.	1.G	.	1.c	.	1.e	.
!LO:TX:t=P:problem=kreska pseudotaktowa	!	!	!	!	!	!LO:TX:t=P:problem=kreska pseudotaktowa	!
2D/	.	2F/	.	2B-/	.	2d/	.
=81-	=81-	=81-	=81-	=81-	=81-	=81-	=81-
1GG	.	1D	.	1G	.	1B-	.
0C	.	0E	.	0A	.	0c	.
=82-	=82-	=82-	=82-	=82-	=82-	=82-	=82-
0.GG;	.	0.D	.	0.G	.	0.B-	.
=-	=-	=-	=-	=-	=-	=-	=-
*-	*-	*-	*-	*-	*-	*-	*-
!!!system-decoration: [(s1,s2,s3,s4)]
!!!ENC: Mateusz Solarz
!!!END: 2022-02-17
!!!ENC: Julita Ruszuk
!!!END: 2022-02-25
!!!ENC-iiif: Antoni Szymański
!!!END-iiif: 2022-09-03
!!!YEC: Copyright 2022 Narodowy Instytut Fryderyka Chopina (https://polishscores.org)
!!!YEM: Licence CC BY 4.0 (https://creativecommons.org/licenses/by/4.0)
!!!IIIF: https://repozytorium.nifc.pl/islandora/object/pl-kk%3A1/datastream/IIIF/view
